X: 43064
T: Wind That Shakes The Barley, The
R: reel
M: 4/4
K: Dmajor
|:A2 AB AFED|B2 BA BcdB|A2 AB AFED|1 gfed BcdB:|2 gfed B2 d2||
f2 fd g2 ge|f2 fd Bcde|f2 fd g2 ge|afed Bcde|
f2 fd g2 ge|f2 fd edBA|defg afba|gfed B2 d2||

